X:21208 
T:YOUR MOTHER'S FAIR PET (reel)
B:DMI.0615
Z:Nordberg/Black
N:This is another tune where the C's could either be sharp 
(per DMI key signature) or natural (per what my ear tells me!),
as accented C's usually are in Irish dance tunes. You can 
hear the source version (with C sharps) by replacing G with 
D in the %K: field.
R:reel
%Q:1/4=180
M:C|
L:1/8
K:G
"D modal"
ed|cAAB cded|cAGE EDDB|cBAB cdeg|1 fdec df:|\
[2 fdec d2|
de|f2fa e2eg|fded cAAg|f2fa e2eg|fdec d2de|
f2fa e2eg|fded cAAg|f3f eaag|fdec d4|]




%%% end of DMI file %%%s


